img/speaker-coming-soon-bottom.svg

<svg width="300" height="150" viewBox="0 0 300 150" xmlns="http://www.w3.org/2000/svg"><title>Shape</title><path d="M25.7 150c1.3-2 4-2.9 6.2-1.7.7.4 1.3.7 1.7 1.7H300V0H0v150h25.7zm268.2-72.8c2.6 0 4.6 2.1 4.6 4.6 0 2.6-2.1 4.6-4.6 4.6-2.6 0-4.6-2.1-4.6-4.6 0-2.5 2.1-4.6 4.6-4.6zm-45.3 32.9l1 .4c-1 2.3-1.1 4.3-.5 5.8.7 1.5 2.2 2.8 4.6 3.6 5.3 1.9 7 5.6 4.8 10.8l-1-.4c1-2.3 1.1-4.3.5-5.8-.7-1.5-2.2-2.8-4.6-3.6-2.7-.9-4.4-2.3-5.2-4.2-.9-1.7-.7-3.9.4-6.6zm-10-95.9c2.6 0 4.6 2.1 4.6 4.6 0 2.6-2.1 4.6-4.6 4.6-2.5 0-4.6-2.1-4.6-4.6 0-2.6 2-4.6 4.6-4.6zm-64.9 46.2c2.5.5 4.4.3 5.8-.7 1.4-1 2.3-2.7 2.6-5.2.4-2.8 1.4-4.8 3.1-5.9 1.6-1.1 3.9-1.4 6.6-.9l-.2 1c-2.5-.5-4.4-.3-5.8.7-1.4 1-2.3 2.7-2.6 5.2-.8 5.6-4.2 7.9-9.7 6.8l.2-1zm-41.5 60.1c2.6 0 4.6 2.1 4.6 4.6 0 2.6-2.1 4.6-4.6 4.6-2.6 0-4.6-2.1-4.6-4.6 0-2.5 2.1-4.6 4.6-4.6zM92.8 20.2c2.6 0 4.6 2.1 4.6 4.6 0 2.6-2.1 4.6-4.6 4.6-2.6 0-4.6-2.1-4.6-4.6-.1-2.5 2-4.6 4.6-4.6zM26 34.1l1 .4c-.9 2.4-1 4.3-.3 5.9.7 1.5 2.3 2.7 4.7 3.5 5.4 1.7 7.1 5.4 5.1 10.7l-1-.4c.9-2.4 1-4.3.3-5.9-.7-1.5-2.3-2.7-4.7-3.5-2.7-.9-4.5-2.2-5.4-4-.9-1.8-.8-4 .3-6.7z" fill="#FFF" fill-rule="evenodd"/></svg>

<?xml version="1.0" encoding="UTF-8" standalone="no"?>
<svg width="300px" height="150px" viewBox="0 0 300 150" version="1.1" xmlns="http://www.w3.org/2000/svg" xmlns:xlink="http://www.w3.org/1999/xlink" xmlns:sketch="http://www.bohemiancoding.com/sketch/ns">
    <!-- Generator: Sketch 3.3.3 (12072) - http://www.bohemiancoding.com/sketch -->
    <title>Shape</title>
    <desc>Created with Sketch.</desc>
    <defs></defs>
    <g id="Page-1" stroke="none" stroke-width="1" fill="none" fill-rule="evenodd" sketch:type="MSPage">
        <g id="speaker-coming-soon-bottom" sketch:type="MSLayerGroup" fill="#FFFFFF">
            <path d="M25.7,150 C27,148 29.7,147.1 31.9,148.3 C32.6,148.7 33.2,149 33.6,150 L300,150 L300,0 L0,0 L0,150 L25.7,150 Z M293.9,77.2 C296.5,77.2 298.5,79.3 298.5,81.8 C298.5,84.4 296.4,86.4 293.9,86.4 C291.3,86.4 289.3,84.3 289.3,81.8 C289.3,79.3 291.4,77.2 293.9,77.2 Z M248.6,110.1 L249.6,110.5 C248.6,112.8 248.5,114.8 249.1,116.3 C249.8,117.8 251.3,119.1 253.7,119.9 C259,121.8 260.7,125.5 258.5,130.7 L257.5,130.3 C258.5,128 258.6,126 258,124.5 C257.3,123 255.8,121.7 253.4,120.9 C250.7,120 249,118.6 248.2,116.7 C247.3,115 247.5,112.8 248.6,110.1 Z M238.6,14.2 C241.2,14.2 243.2,16.3 243.2,18.8 C243.2,21.4 241.1,23.4 238.6,23.4 C236.1,23.4 234,21.3 234,18.8 C234,16.2 236,14.2 238.6,14.2 Z M173.7,60.4 C176.2,60.9 178.1,60.7 179.5,59.7 C180.9,58.7 181.8,57 182.1,54.5 C182.5,51.7 183.5,49.7 185.2,48.6 C186.8,47.5 189.1,47.2 191.8,47.7 L191.6,48.7 C189.1,48.2 187.2,48.4 185.8,49.4 C184.4,50.4 183.5,52.1 183.2,54.6 C182.4,60.2 179,62.5 173.5,61.4 L173.7,60.4 Z M132.2,120.5 C134.8,120.5 136.8,122.6 136.8,125.1 C136.8,127.7 134.7,129.7 132.2,129.7 C129.6,129.7 127.6,127.6 127.6,125.1 C127.6,122.6 129.7,120.5 132.2,120.5 Z M92.8,20.2 C95.4,20.2 97.4,22.3 97.4,24.8 C97.4,27.4 95.3,29.4 92.8,29.4 C90.2,29.4 88.2,27.3 88.2,24.8 C88.1,22.3 90.2,20.2 92.8,20.2 Z M26,34.1 L27,34.5 C26.1,36.9 26,38.8 26.7,40.4 C27.4,41.9 29,43.1 31.4,43.9 C36.8,45.6 38.5,49.3 36.5,54.6 L35.5,54.2 C36.4,51.8 36.5,49.9 35.8,48.3 C35.1,46.8 33.5,45.6 31.1,44.8 C28.4,43.9 26.6,42.6 25.7,40.8 C24.8,39 24.9,36.8 26,34.1 Z" id="Shape" sketch:type="MSShapeGroup"></path>
        </g>
    </g>
</svg>
